Sources/FrostedUI/Resources/Icons.xcassets/editProfile24.imageset/edit-profile-24.svg

<svg width="24" height="24" viewBox="0 0 24 24" fill="none" xmlns="http://www.w3.org/2000/svg" data-fui-icon="true">
  <path
    d="M3.43457 14.9434C5.59528 12.9919 8.74691 12.223 12.6934 13.2754C13.0933 13.3822 13.331 13.7934 13.2246 14.1934C13.1177 14.5933 12.7067 14.8312 12.3066 14.7246C8.75352 13.7771 6.15471 14.5085 4.44043 16.0566C2.69975 17.6289 1.75008 20.153 1.75 23C1.74983 23.414 1.41399 23.7499 1 23.75C0.585894 23.75 0.250174 23.4141 0.25 23C0.250081 19.8475 1.30063 16.871 3.43457 14.9434ZM18.2383 12.1357C19.4942 10.88 21.5312 10.88 22.7871 12.1357C24.0425 13.3916 24.0427 15.4278 22.7871 16.6836L16.9492 22.5205C16.5077 22.9619 15.9291 23.2396 15.3086 23.3086L13.0771 23.5576C12.0899 23.6673 11.2556 22.8329 11.3652 21.8457L11.6133 19.6133C11.6823 18.9929 11.96 18.4141 12.4014 17.9727L18.2383 12.1357ZM13.4619 19.0332C13.2614 19.2338 13.1349 19.4974 13.1035 19.7793L12.8555 22.0117C12.8523 22.0431 12.8788 22.0694 12.9102 22.0664L15.1436 21.8184C15.4254 21.7869 15.6881 21.6604 15.8887 21.46L19.8877 17.4609L17.4609 15.0342L13.4619 19.0332ZM21.7256 13.1963C21.0555 12.5264 19.9699 12.5264 19.2998 13.1963L18.5215 13.9736L20.9482 16.4004L21.7256 15.623C22.3956 14.9529 22.3957 13.8664 21.7256 13.1963ZM10.5 0.25C13.3994 0.250132 15.75 2.60059 15.75 5.5C15.75 8.39941 13.3994 10.7499 10.5 10.75C7.6005 10.75 5.25 8.3995 5.25 5.5C5.25 2.60051 7.6005 0.25 10.5 0.25ZM10.5 1.75C8.42893 1.75 6.75 3.42893 6.75 5.5C6.75 7.57107 8.42893 9.25 10.5 9.25C12.571 9.24987 14.25 7.57099 14.25 5.5C14.25 3.42901 12.571 1.75013 10.5 1.75Z"
    fill="currentColor"
  />
</svg>

<svg xmlns="http://www.w3.org/2000/svg" width="24" height="24" fill="none" data-fui-icon="true" viewBox="0 0 24 24"><path fill="currentColor" d="M3.435 14.943c2.16-1.951 5.312-2.72 9.258-1.668a.75.75 0 0 1-.386 1.45c-3.553-.948-6.152-.216-7.867 1.332C2.7 17.629 1.75 20.153 1.75 23a.75.75 0 0 1-1.5 0c0-3.152 1.05-6.129 3.185-8.057m14.803-2.807a3.217 3.217 0 0 1 4.55 4.548l-5.839 5.836a2.75 2.75 0 0 1-1.64.789l-2.232.249a1.55 1.55 0 0 1-1.712-1.712l.248-2.233c.07-.62.347-1.199.788-1.64zm-4.776 6.897c-.2.2-.327.464-.358.746l-.248 2.233a.05.05 0 0 0 .054.054l2.234-.248c.281-.031.544-.158.745-.358l3.999-4-2.427-2.426zm8.264-5.837a1.715 1.715 0 0 0-2.426 0l-.779.778 2.427 2.426.778-.777c.67-.67.67-1.757 0-2.427M10.5.25a5.25 5.25 0 1 1 0 10.5 5.25 5.25 0 0 1 0-10.5m0 1.5a3.75 3.75 0 1 0 0 7.5 3.75 3.75 0 0 0 0-7.5"/></svg>
